usr/share/icons/biglinux-icons-material/22/actions/folder-sync.svg

<svg version="1.1" viewBox="0 0 22 22" xmlns="http://www.w3.org/2000/svg">
 <defs>
  <style id="current-color-scheme" type="text/css">.ColorScheme-Text {
        color:#dedede;
      }</style>
 </defs>
 <path class="ColorScheme-Text" d="m16.5 11c-1.933 0-3.5 1.567-3.5 3.5s1.567 3.5 3.5 3.5 3.5-1.567 3.5-3.5-1.567-3.5-3.5-3.5zm0 1c0.48983 7.83e-4 0.96864 0.14544 1.377 0.41602l-0.73242 0.73242c-0.20112-0.09682-0.42132-0.14753-0.64453-0.14844-0.82843 0-1.5 0.67157-1.5 1.5 9.07e-4 0.22321 0.05162 0.44341 0.14844 0.64453l-0.73242 0.73242c-0.27057-0.40832-0.41523-0.88712-0.41602-1.377 0-1.3807 1.1193-2.5 2.5-2.5zm2.084 1.123c0.27057 0.40832 0.41523 0.88712 0.41602 1.377 0 1.3807-1.1193 2.5-2.5 2.5-0.48983-7.83e-4 -0.96864-0.14544-1.377-0.41602l0.73242-0.73242c0.20112 0.09682 0.42132 0.14753 0.64453 0.14844 0.82843 0 1.5-0.67157 1.5-1.5-9.07e-4 -0.22321-0.05162-0.44341-0.14844-0.64453l0.73242-0.73242z" fill="currentColor"/>
 <path d="m4 3c-1.108 0-2 0.892-2 2v11c0 1.108 0.892 2 2 2h8v-1h-8c-0.554 0-1-0.446-1-1v-8h16v2h1v-4c0-1.108-0.892-2-2-2h-9.6289c-0.57985-0.0229-0.6047 0.076884-1.0391-0.35742-0.43381-0.43381-0.613-0.64213-1.332-0.64258h-2zm0 1h2c0.31116-1.7e-6 0.52033 1.414e-4 0.99805 0.4707 0.47877 0.47161 0.6388 0.5293 1 0.5293h10.002c0.554 0 1 0.446 1 1v1h-16v-2c0-0.554 0.446-1 1-1z" class="ColorScheme-Text" fill="currentColor"/>
</svg>

<svg xmlns="http://www.w3.org/2000/svg" viewBox="0 0 22 22"><defs><style id="current-color-scheme" type="text/css">.ColorScheme-Text{color:#dedede}</style></defs><path fill="currentColor" d="M16.5 11a3.5 3.5 0 1 0 0 7 3.5 3.5 0 0 0 0-7zm0 1a2.5 2.5 0 0 1 1.377.416l-.732.732A1.5 1.5 0 0 0 16.5 13a1.5 1.5 0 0 0-1.5 1.5c.001.223.052.443.148.645l-.732.732A2.5 2.5 0 0 1 16.5 12zm2.084 1.123a2.5 2.5 0 0 1-3.461 3.461l.732-.732A1.5 1.5 0 0 0 16.5 16a1.5 1.5 0 0 0 1.5-1.5 1.5 1.5 0 0 0-.148-.645l.732-.732z" class="ColorScheme-Text"/><path fill="currentColor" d="M4 3c-1.108 0-2 .892-2 2v11c0 1.108.892 2 2 2h8v-1H4c-.554 0-1-.446-1-1V8h16v2h1V6c0-1.108-.892-2-2-2H8.371c-.58-.023-.605.077-1.039-.357C6.898 3.209 6.719 3 6 3H4zm0 1h2c.311 0 .52 0 .998.47.479.472.639.53 1 .53H18c.554 0 1 .446 1 1v1H3V5c0-.554.446-1 1-1z" class="ColorScheme-Text"/></svg>
